X:1
T:Psalm 8
T:V 2
L:1/4
M:20/4
I:linebreak $
K:C
V:1 treble nm="Pipe Organ" snm="Org."
V:1
 D2 F2 G2 A2 d2 c B A c B2 A3 z |$[M:18/4] d2 d d c2 e2 d A _B A G2 F3 z |$ %2
w: U het, o HEER, wat troon oor al- le din- ge,|uit kin- der- taal en stem van sui- ge- ling- e|
[M:16/4] F2 E E D2 A2 c c G2 _B2 A2 |$[M:20/4] z A c2 d2 A2 c2 A G F2 E2 D4 |] %4
w: u mag ge- grond, so- dat die mens moet swyg|wat, hoog van hart, uit wraak- be- geer- te dreig.|

